X:1
T:Kiss the Bride -- Reel
R:reel
B:Ryan's Mammoth Collection
N:143
Z:Contributed by Ray Davies,  ray:davies99.freeserve.co.uk
M:C|
L:1/8
K:G
uD2|\
GBAG FGAc | BGBd g2 (dg) | ecAG FGAc | BG"_4"AF GFED |
GBAG FGAc | BGBd g2 (dg) | ecAG FGAc | BG"_4"AF G2  ::
ud2|\
g2 (a/g/f/g/) a2 (b/a/^g/a/) | bagf g2 (dg) | ecAG FGAc | BG"_4"AF GFED |
g2 (a/g/f/g/) a2 (b/a/^g/a/) | bagf g2 (dg) | ecAG FGAc | BG"_4"AF G2  :|
